X:370
T:Shadiac Morning
M:C|
L:1/8
C:© Paul Gitlitz 2014
K:D
"D"A2FA "Bm"fedB|"D"A2FA BFAd|"D"defd "Bm"edBd|"D"FABA "A"E2FG|!
"D"A2FA "Bm"fedB|"D"A2FA BFAd|"F#m"faec "Bm"dcBA|1"D"FABA d2dB:|2"D"FABA dAFD|!
|:"Bm"B,2F2 "Em"EdcB|"D"FDAF "G"BAGE|"Bm"F3f "Em"edcB|"F#m"ABFD "A"E2ED|!
"Bm"B,2F2 "Em"EdcB|"D"FDAD "G"BAGE|"Bm"F2f2 "Em"edcB|1"F#m"ABFA "D"dAFD:|2"F#m"FABA "D"d4|]
